X:1
T:Banes, 87.87.47 repeat
T:Banes, 87.87.47 repeat
T:Charles F. Blandner, 1871
T:Public Domain Courtesy of the Cyber Hymnal™
C:Charles F. Blandner, 1871
Z:Public Domain
Z:Courtesy of the Cyber Hymnal™
%%score ( 1 2 ) ( 3 4 )
L:1/8
Q:1/4=97
M:3/4
K:G
V:1 treble 
V:2 treble 
V:3 bass 
V:4 bass 
V:1
 D>[GB] | [GB]2 [FA]2 D>[Fc] | [Fc]2 [GB]2 G[GB] | [Bd]3 [GB] (3(B{b}AG) | [FA]4 D>[GB] | %5
 [GB]2 [FA]2 D>[Fc] | [Fc]2 [GB]2 [Gd][Gd] | [G^c][GA] [EG]2 [^CE]2 | D3 z [DF]>[^CE] | %9
 D2 [^CE]2 [DF][EG] | [FA][GB] [Ac]2 [GB]2 | [FA]4 [FA]>[FA] | ([GB]>[Ac]) [Gd]2 [GB][Gd] | %13
 (3(d{c'}cA) [DG]2 [DF]2 | [DG]4 |] %15
V:2
 D3/2 x/ | x4 D3/2 x/ | x4 G x | x4 G2 | x4 D3/2 x/ | x4 D3/2 x/ | x6 | x6 | D3 x3 | D2 x4 | x6 | %11
 x6 | x6 | E2 x4 | x4 |] %15
V:3
 [G,B,]>[G,D] | [D,D]2 [D,D]2 [F,A,]>[D,A,] | [D,A,]2 [G,B,]2 [B,D][B,D] | %3
 [G,B,]3 [G,D] (3(D{c}CB,) | [D,A,]4 [G,B,]>[G,D] | [D,D]2 [D,D]2 [F,A,]>[D,A,] | %6
 [D,A,]2 [G,B,]2 [G,B,][G,B,] | A,A, [A,,A,]2 [A,,G,]2 | [D,F,]3 z3 | z6 | z6 | z4 [D,D]>[D,D] | %12
 (D>C) [G,B,]2 [G,D][G,B,] | (3:2:2[C,C]2 [C,C] [D,B,]2 [D,A,]2 | [G,B,]4 |] %15
V:4
 x2 | x6 | x6 | x4 G,2 | x6 | x6 | x6 | A,A, x4 | x6 | x6 | x6 | x6 | G,2 x4 | x6 | x4 |] %15

